!!!OTL: Seht, wie er im Glase blinkt et.
!!!OTL-incipit: SEHT WIE ER IM GLASE BLINKT
!!!ARE: Europa, Mitteleuropa, Deutschland
!!!SCT: F0535A
!!!TXL: @@DE
!!!YEM: Copyright 1995, estate of Helmut Schaffrath.
**kern	**text
*ICvox	*
*clefG2	*
*M4/4	*
*met(c)	*
*k[f#]	*
*G:	*
=1	=1
!LO:TX:a:t=Einer. Bei der Wiederholung Alle.	!
!LO:TX:a:t=Mäßig.	!
!LO:TX:a:t=P:only the highest voice encoded:problem	!
{4b/	1._Seht,
4b/	wie
8b/L	er
8aJ	.
8gL	im
8f#J	.
=2	=2
4e	Gla-
4e	-ſe
4e	blinkt,
4r}	.
=3	=3
{4.cc/	die-
8a	-ſer
4.dd/	Saft
8cc/	der
=4	=4
(>4b/	Re-
4a)	.
4g	-ben!
4r}	.
=5	=5
{4b/	1._Seht,
4b/	wie
8b/L	er
8aJ	.
8gL	im
8f#J	.
=6	=6
4e	Gla-
4e	-ſe
4e	blinkt,
4r}	.
=7	=7
{4.cc/	die-
8a	-ſer
4.dd/	Saft
8cc/	der
=8	=8
(>4b/	Re-
4a)	.
4g	-ben!
4r}	.
=9	=9
!LO:TX:a:t=Einer. Bei der Wiederholung Alle.	!
{4dd/	Jn
4dd/	des
8dd/L	teut-
8eeJ	.
8dd/L	-ſchen
8ccJ	.
=10	=10
4b/	Jünglings
4b/	.
4b/	Bruſt,
4r}	.
=11	=11
{4.dd/	in
8dd/	des
8ee/L	Jünglings
8ddJ	.
8cc/L	.
8bJ	.
=12	=12
8a/L	teutſche
8ddJ	.
8c#a/L	.
8eeJ	.
4dd/	Bruſt
4r}	.
=13	=13
{4.cc/	gießt
8a	er
4.dd/	Kraft
8cc/	und
=14	=14
(>4b/	Le-
4a)	.
4g	-ben.
4r}	.
=15	=15
{4dd/	Jn
4dd/	des
8dd/L	teut-
8eeJ	.
8dd/L	-ſchen
8ccJ	.
=16	=16
4b/	Jünglings
4b/	.
4b/	Bruſt,
4r}	.
=17	=17
{4.dd/	in
8dd/	des
8ee/L	Jünglings
8ddJ	.
8cc/L	.
8bJ	.
=18	=18
8a/L	teutſche
8ddJ	.
8c#a/L	.
8eeJ	.
4dd/	Bruſt
4r}	.
=19	=19
{4.cc/	gießt
8a	er
4.dd/	Kraft
8cc/	und
=20	=20
(>4b/	Le-
4a)	.
4g	-ben.
4r}	.
==;	==;
!!!AGN: Studenten -, Trink - Lied, Rundgesang
!!!ONB: ESAC (Essen Associative Code) Database: FINK
!!!AMT: simple quadruple
!!!AIN: vox
!!!EED: Helmut Schaffrath
!!!EEV: 1.0
!!!RDF**kern: > = above
!!!GTL: Studentenlieder
!!!source: Musikalischer Hausschatz der Deutschen. Eine Sammlung von über 1000 Liedern und Gesängen mit Singstimmen und Klavierbegleitung. Leipzig, Litterarisches Verlags-Haus.
!!!page: 341
!!!URL-scan: https://www.digitale-sammlungen.de/en/view/bsb11144622?page=320
!!!ENC: Anna Maria Matuszewska
!!!EEV: 2024/08/02
*-	*-
